!!!OTL: "Genoveva" ICH KLAG ES DEM WALD
!!!ARE: Europa, Mitteleuropa, Deutschland, Niederrhein
!!!SCT: Z1380
!!!YEM: Copyright 1995, estate of Helmut Schaffrath.
**kern
*ICvox
*Ivox
*M3/4
*k[f#c#]
*D:
{8f#
8e
=1
4d
4f#
4g
=2
2a}
{8dd
8cc#
=3
4b
4a
4g
=4
4a
4r}
{4a
=5
4b
4a
4g
=6
2a}
{4a
=7
4b
4a
8g
8e
=8
4.f#
8g}
{4a
=9
4f#
4e
4d
=10
2e}
{8f#
8e
=11
4d
4d
4e
=12
8.f#
16e
4d}
{8dd
8cc#
=13
4b
4a
4g
=14
8f#
8g
4a}
{4g
=15
4.f#
8d
4e
=16
2d}
==
!!!AGN: Erzaehlung, Romanze
!!!ONB: ESAC (Essen Associative Code) Database: ZUCCAL
!!!AMT: simple triple
!!!AIN: vox
!!!EED: Helmut Schaffrath
!!!EEV: 1.0
*-
